<?xml version="1.0" encoding="UTF-8"?>
<map version="1.10" tiledversion="1.12.1" orientation="orthogonal" renderorder="right-down" width="60" height="40" tilewidth="64" tileheight="64" infinite="0" nextlayerid="4" nextobjectid="1">
 <tileset firstgid="1" source="tileset1.tsx"/>
 <tileset firstgid="1486" source="tileset2.tsx"/>
 <tileset firstgid="2000" source="city_tiles.tsx"/>
 <layer id="3" name="FloorBlocks" width="60" height="40">
  <data encoding="csv">
2007,2007,2007,2007,2007,2007,2007,2007,2007,2007,2007,2007,2007,2007,2007,2007,2007,2007,2007,2007,2007,2007,2007,2007,2007,2007,2007,2007,2007,2007,2007,2007,2007,2007,2007,2007,2007,2007,2007,2007,2007,2007,2007,2007,2007,2007,2007,2007,2007,2007,2007,2007,2007,2007,2007,2007,2007,2007,2007,2007,
2007,0,0,0,0,0,0,0,0,0,0,0,0,0,0,0,0,0,0,0,0,0,0,0,0,0,0,0,0,0,0,0,0,0,0,0,0,0,0,0,0,0,0,0,0,0,0,0,0,0,0,0,0,0,0,0,0,0,0,2007,
2007,0,0,0,0,0,0,0,0,0,0,0,0,0,0,0,0,0,0,0,0,0,0,0,0,0,0,0,0,0,0,0,0,0,0,0,0,0,0,0,0,0,0,0,0,0,0,0,0,0,0,0,0,0,0,0,0,0,0,2007,
2007,0,0,0,0,0,0,0,0,0,0,0,0,0,0,0,0,0,0,0,0,0,0,0,0,0,0,0,0,0,0,0,0,0,0,0,0,0,0,0,0,0,0,0,0,0,0,0,0,0,0,0,0,0,0,0,0,0,0,2007,
2007,0,0,0,0,0,0,0,0,0,0,0,0,0,0,0,0,0,0,0,0,0,0,0,0,0,0,0,0,0,0,0,0,0,0,0,0,0,0,0,0,0,0,0,0,0,0,0,0,0,0,0,0,0,0,0,0,0,0,2007,
2007,0,0,0,0,0,0,0,0,0,0,0,0,0,0,0,0,0,0,0,0,0,0,0,0,0,0,0,0,0,0,0,0,0,0,0,0,0,0,0,0,0,0,0,0,0,0,0,0,0,0,0,0,0,0,0,0,0,0,2007,
2007,0,0,0,0,0,0,0,0,0,0,0,0,0,0,0,0,0,0,0,0,0,0,0,0,0,0,0,0,0,0,0,0,0,0,0,0,0,0,0,0,0,0,0,0,0,0,0,0,0,0,0,0,0,0,0,0,0,0,2007,
2007,0,0,0,0,0,0,0,0,0,0,0,0,0,0,0,0,0,0,0,0,0,0,0,0,0,0,0,0,0,0,0,0,0,0,0,0,0,0,0,0,0,0,0,0,0,0,0,0,0,0,0,0,0,0,0,0,0,0,2007,
2007,0,0,0,0,0,0,0,0,0,0,0,0,0,0,0,0,0,0,0,0,0,0,0,0,0,0,0,0,0,0,0,0,0,0,0,0,0,0,0,0,0,0,0,0,0,0,0,0,0,0,0,0,0,0,0,0,0,0,2007,
2007,0,0,0,0,0,0,0,0,0,0,0,0,0,0,0,0,0,0,0,0,0,0,0,0,0,0,0,0,0,0,0,0,0,0,0,0,0,0,0,0,0,0,0,0,0,0,0,0,0,0,0,0,0,0,0,0,0,0,2007,
2007,0,0,0,0,0,0,0,0,0,0,0,0,0,0,0,0,0,0,0,0,0,0,0,0,0,0,0,0,0,0,0,0,0,0,0,0,0,0,0,0,0,0,0,0,0,0,0,0,0,0,0,0,0,0,0,0,0,0,2007,
2007,0,0,0,0,0,0,0,0,0,0,0,0,0,0,0,0,0,0,0,0,0,0,0,0,0,0,0,0,0,0,0,0,0,0,0,0,0,0,0,0,0,0,0,0,0,0,0,0,0,0,0,0,0,0,0,0,0,0,2007,
2007,0,0,0,0,0,0,0,0,0,0,0,0,0,0,0,0,0,0,0,0,0,0,0,0,0,0,0,0,0,0,0,0,0,0,0,0,0,0,0,0,0,0,0,0,0,0,0,0,0,0,0,0,0,0,0,0,0,0,2007,
2007,0,0,0,0,0,0,0,0,0,0,0,0,0,0,0,0,0,0,0,0,0,0,0,0,0,0,0,0,0,0,0,0,0,0,0,0,0,0,0,0,0,0,0,0,0,0,0,0,0,0,0,0,0,0,0,0,0,0,2007,
2007,0,0,0,0,0,0,0,0,0,0,0,0,0,0,0,0,0,0,0,0,0,0,0,0,0,0,0,0,0,0,0,0,0,0,0,0,0,0,0,0,0,0,0,0,0,0,0,0,0,0,0,0,0,0,0,0,0,0,2007,
2007,0,0,0,0,0,0,0,0,0,0,0,0,0,0,0,0,0,0,0,0,0,0,0,0,0,0,0,0,0,0,0,0,0,0,0,0,0,0,0,0,0,0,0,0,0,0,0,0,0,0,0,0,0,0,0,0,0,0,2007,
2007,0,0,0,0,0,0,0,0,0,0,0,0,0,0,0,0,0,0,0,0,0,0,0,0,0,0,0,0,0,0,0,0,0,0,0,0,0,0,0,0,0,0,0,0,0,0,0,0,0,0,0,0,0,0,0,0,0,0,2007,
2007,0,0,0,0,0,0,0,0,0,0,0,0,0,0,0,0,0,0,0,0,0,0,0,0,0,0,0,0,0,0,0,0,0,0,0,0,0,0,0,0,0,0,0,0,0,0,0,0,0,0,0,0,0,0,0,0,0,0,2007,
2007,0,0,0,0,0,0,0,0,0,0,0,0,0,0,0,0,0,0,0,0,0,0,0,0,0,0,0,0,0,0,0,0,0,0,0,0,0,0,0,0,0,0,0,0,0,0,0,0,0,0,0,0,0,0,0,0,0,0,2007,
2007,0,0,0,0,0,0,0,0,0,0,0,0,0,0,0,0,0,0,0,0,0,0,0,0,0,0,0,0,0,0,0,0,0,0,0,0,0,0,0,0,0,0,0,0,0,0,0,0,0,0,0,0,0,0,0,0,0,0,2007,
2007,0,0,0,0,0,0,0,0,0,0,0,0,0,0,0,0,0,0,0,0,0,0,0,0,0,0,0,0,0,0,0,0,0,0,0,0,0,0,0,0,0,0,0,0,0,0,0,0,0,0,0,0,0,0,0,0,0,0,2007,
2007,0,0,0,0,0,0,0,0,0,0,0,0,0,0,0,0,0,0,0,0,0,0,0,0,0,0,0,0,0,0,0,0,0,0,0,0,0,0,0,0,0,0,0,0,0,0,0,0,0,0,0,0,0,0,0,0,0,0,2007,
2007,0,0,0,0,0,0,0,0,0,0,0,0,0,0,0,0,0,0,0,0,0,0,0,0,0,0,0,0,0,0,0,0,0,0,0,0,0,0,0,0,0,0,0,0,0,0,0,0,0,0,0,0,0,0,0,0,0,0,2007,
2007,0,0,0,0,0,0,0,0,0,0,0,0,0,0,0,0,0,0,0,0,0,0,0,0,0,0,0,0,0,0,0,0,0,0,0,0,0,0,0,0,0,0,0,0,0,0,0,0,0,0,0,0,0,0,0,0,0,0,2007,
2007,0,0,0,0,0,0,0,0,0,0,0,0,0,0,0,0,0,0,0,0,0,0,0,0,0,0,0,0,0,0,0,0,0,0,0,0,0,0,0,0,0,0,0,0,0,0,0,0,0,0,0,0,0,0,0,0,0,0,2007,
2007,0,0,0,0,0,0,0,0,0,0,0,0,0,0,0,0,0,0,0,0,0,0,0,0,0,0,0,0,0,0,0,0,0,0,0,0,0,0,0,0,0,0,0,0,0,0,0,0,0,0,0,0,0,0,0,0,0,0,2007,
2007,0,0,0,0,0,0,0,0,0,0,0,0,0,0,0,0,0,0,0,0,0,0,0,0,0,0,0,0,0,0,0,0,0,0,0,0,0,0,0,0,0,0,0,0,0,0,0,0,0,0,0,0,0,0,0,0,0,0,2007,
2007,0,0,0,0,0,0,0,0,0,0,0,0,0,0,0,0,0,0,0,0,0,0,0,0,0,0,0,0,0,0,0,0,0,0,0,0,0,0,0,0,0,0,0,0,0,0,0,0,0,0,0,0,0,0,0,0,0,0,2007,
2007,0,0,0,0,0,0,0,0,0,0,0,0,0,0,0,0,0,0,0,0,0,0,0,0,0,0,0,0,0,0,0,0,0,0,0,0,0,0,0,0,0,0,0,0,0,0,0,0,0,0,0,0,0,0,0,0,0,0,2007,
2007,0,0,0,0,0,0,0,0,0,0,0,0,0,0,0,0,0,0,0,0,0,0,0,0,0,0,0,0,0,0,0,0,0,0,0,0,0,0,0,0,0,0,0,0,0,0,0,0,0,0,0,0,0,0,0,0,0,0,2007,
2007,0,0,0,0,0,0,0,0,0,0,0,0,0,0,0,0,0,0,0,0,0,0,0,0,0,0,0,0,0,0,0,0,0,0,0,0,0,0,0,0,0,0,0,0,0,0,0,0,0,0,0,0,0,0,0,0,0,0,2007,
2007,0,0,0,0,0,0,0,0,0,0,0,0,0,0,0,0,0,0,0,0,0,0,0,0,0,0,0,0,0,0,0,0,0,0,0,0,0,0,0,0,0,0,0,0,0,0,0,0,0,0,0,0,0,0,0,0,0,0,2007,
2007,0,0,0,0,0,0,0,0,0,0,0,0,0,0,0,0,0,0,0,0,0,0,0,0,0,0,0,0,0,0,0,0,0,0,0,0,0,0,0,0,0,0,0,0,0,0,0,0,0,0,0,0,0,0,0,0,0,0,2007,
2007,0,0,0,0,0,0,0,0,0,0,0,0,0,0,0,0,0,0,0,0,0,0,0,0,0,0,0,0,0,0,0,0,0,0,0,0,0,0,0,0,0,0,0,0,0,0,0,0,0,0,0,0,0,0,0,0,0,0,2007,
2007,0,0,0,0,0,0,0,0,0,0,0,0,0,0,0,0,0,0,0,0,0,0,0,0,0,0,0,0,0,0,0,0,0,0,0,0,0,0,0,0,0,0,0,0,0,0,0,0,0,0,0,0,0,0,0,0,0,0,2007,
2007,0,0,0,0,0,0,0,0,0,0,0,0,0,0,0,0,0,0,0,0,0,0,0,0,0,0,0,0,0,0,0,0,0,0,0,0,0,0,0,0,0,0,0,0,0,0,0,0,0,0,0,0,0,0,0,0,0,0,2007,
2007,0,0,0,0,0,0,0,0,0,0,0,0,0,0,0,0,0,0,0,0,0,0,0,0,0,0,0,0,0,0,0,0,0,0,0,0,0,0,0,0,0,0,0,0,0,0,0,0,0,0,0,0,0,0,0,0,0,0,2007,
2007,0,0,0,0,0,0,0,0,0,0,0,0,0,0,0,0,0,0,0,0,0,0,0,0,0,0,0,0,0,0,0,0,0,0,0,0,0,0,0,0,0,0,0,0,0,0,0,0,0,0,0,0,0,0,0,0,0,0,2007,
2007,0,0,0,0,0,0,0,0,0,0,0,0,0,0,0,0,0,0,0,0,0,0,0,0,0,0,0,0,0,0,0,0,0,0,0,0,0,0,0,0,0,0,0,0,0,0,0,0,0,0,0,0,0,0,0,0,0,0,2007,
2007,2007,2007,2007,2007,2007,2007,2007,2007,2007,2007,2007,2007,2007,2007,2007,2007,2007,2007,2007,2007,2007,2007,2007,2007,2007,2007,2007,2007,2007,2007,2007,2007,2007,2007,2007,2007,2007,2007,2007,2007,2007,2007,2007,2007,2007,2007,2007,2007,2007,2007,2007,2007,2007,2007,2007,2007,2007,2007,2007
</data>
 </layer>
 <layer id="1" name="Grass" width="60" height="40">
  <data encoding="csv">
2000,2000,2000,2000,2000,2000,2000,2002,2001,2001,2001,2002,2000,2000,2000,2000,2000,2000,2000,2000,2000,2000,2000,2002,2001,2001,2001,2002,2000,2000,2000,2000,2000,2000,2000,2000,2000,2000,2000,2000,2000,2002,2001,2001,2001,2002,2000,2000,2000,2000,2000,2002,2001,2001,2001,2002,2000,2000,2000,2000,
2000,2000,2000,2000,2000,2000,2000,2002,2001,2001,2001,2002,2000,2000,2000,2000,2000,2000,2000,2000,2000,2000,2000,2002,2001,2001,2001,2002,2000,2000,2000,2000,2000,2000,2000,2000,2000,2000,2000,2000,2000,2002,2001,2001,2001,2002,2000,2000,2000,2000,2000,2002,2001,2001,2001,2002,2000,2000,2000,2000,
2000,2000,2000,2000,2000,2000,2000,2002,2001,2001,2001,2002,2000,2000,2000,2000,2000,2000,2000,2000,2000,2000,2000,2002,2001,2001,2001,2002,2000,2000,2000,2000,2000,2000,2000,2000,2000,2000,2000,2000,2000,2002,2001,2001,2001,2002,2000,2000,2000,2000,2000,2002,2001,2001,2001,2002,2000,2000,2000,2000,
2000,2000,2000,2000,2000,2000,2000,2002,2001,2001,2001,2002,2000,2000,2000,2000,2000,2000,2000,2000,2000,2000,2000,2002,2001,2001,2001,2002,2000,2000,2000,2000,2000,2000,2000,2000,2000,2000,2000,2000,2000,2002,2001,2001,2001,2002,2000,2000,2000,2000,2000,2002,2001,2001,2001,2002,2000,2000,2000,2000,
2000,2000,2000,2000,2000,2000,2000,2002,2001,2001,2001,2002,2000,2000,2000,2000,2000,2000,2000,2000,2000,2000,2000,2002,2001,2001,2001,2002,2000,2000,2000,2000,2000,2000,2000,2000,2000,2000,2000,2000,2000,2002,2001,2001,2001,2002,2000,2000,2000,2000,2000,2002,2001,2001,2001,2002,2000,2000,2000,2000,
2000,2000,2000,2000,2000,2000,2000,2002,2001,2001,2001,2002,2000,2000,2000,2000,2000,2000,2000,2000,2000,2000,2000,2002,2001,2001,2001,2002,2000,2000,2000,2000,2000,2000,2000,2000,2000,2000,2000,2000,2000,2002,2001,2001,2001,2002,2000,2000,2000,2000,2000,2002,2001,2001,2001,2002,2000,2000,2000,2000,
2002,2002,2002,2002,2002,2002,2002,2002,2001,2001,2001,2002,2002,2002,2002,2002,2002,2002,2002,2002,2002,2002,2002,2002,2001,2001,2001,2002,2002,2002,2002,2002,2002,2002,2002,2002,2002,2002,2002,2002,2002,2002,2001,2001,2001,2002,2002,2002,2002,2002,2002,2002,2001,2001,2001,2002,2002,2002,2002,2002,
2001,2001,2001,2001,2001,2001,2001,2001,2003,2003,2003,2001,2001,2001,2001,2001,2001,2001,2001,2001,2001,2001,2001,2001,2003,2003,2003,2001,2001,2001,2001,2001,2001,2001,2001,2001,2001,2001,2001,2001,2001,2001,2003,2003,2003,2001,2001,2001,2001,2001,2001,2001,2003,2003,2003,2001,2001,2001,2001,2001,
2001,2001,2001,2001,2001,2001,2001,2001,2003,2003,2003,2001,2001,2001,2001,2001,2001,2001,2001,2001,2001,2001,2001,2001,2003,2003,2003,2001,2001,2001,2001,2001,2001,2001,2001,2001,2001,2001,2001,2001,2001,2001,2003,2003,2003,2001,2001,2001,2001,2001,2001,2001,2003,2003,2003,2001,2001,2001,2001,2001,
2001,2001,2001,2001,2001,2001,2001,2001,2003,2003,2003,2001,2001,2001,2001,2001,2001,2001,2001,2001,2001,2001,2001,2001,2003,2003,2003,2001,2001,2001,2001,2001,2001,2001,2001,2001,2001,2001,2001,2001,2001,2001,2003,2003,2003,2001,2001,2001,2001,2001,2001,2001,2003,2003,2003,2001,2001,2001,2001,2001,
2002,2002,2002,2002,2002,2002,2002,2002,2001,2001,2001,2002,2002,2002,2002,2002,2002,2002,2002,2002,2002,2002,2002,2002,2001,2001,2001,2002,2002,2002,2002,2002,2002,2002,2002,2002,2002,2002,2002,2002,2002,2002,2001,2001,2001,2002,2002,2002,2002,2002,2002,2002,2001,2001,2001,2002,2002,2002,2002,2002,
2000,2000,2000,2000,2000,2000,2000,2002,2001,2001,2001,2002,2000,2000,2000,2000,2000,2000,2000,2000,2000,2000,2000,2002,2001,2001,2001,2002,2000,2000,2000,2000,2000,2000,2000,2000,2000,2000,2000,2000,2000,2002,2001,2001,2001,2002,2000,2000,2000,2000,2000,2002,2001,2001,2001,2002,2000,2000,2000,2000,
2000,2000,2000,2000,2000,2000,2000,2002,2001,2001,2001,2002,2000,2000,2000,2000,2000,2000,2000,2000,2000,2000,2000,2002,2001,2001,2001,2002,2000,2000,2000,2000,2000,2000,2000,2000,2000,2000,2000,2000,2000,2002,2001,2001,2001,2002,2000,2000,2000,2000,2000,2002,2001,2001,2001,2002,2000,2000,2000,2000,
2000,2000,2000,2000,2000,2000,2000,2002,2001,2001,2001,2002,2000,2000,2000,2000,2000,2000,2000,2000,2000,2000,2000,2002,2001,2001,2001,2002,2000,2000,2000,2000,2000,2000,2000,2000,2000,2000,2000,2000,2000,2002,2001,2001,2001,2002,2000,2000,2000,2000,2000,2002,2001,2001,2001,2002,2000,2000,2000,2000,
2000,2000,2000,2000,2000,2000,2000,2002,2001,2001,2001,2002,2000,2000,2000,2000,2000,2000,2000,2000,2000,2000,2000,2002,2001,2001,2001,2002,2000,2000,2000,2000,2000,2000,2000,2000,2000,2000,2000,2000,2000,2002,2001,2001,2001,2002,2000,2000,2000,2000,2000,2002,2001,2001,2001,2002,2000,2000,2000,2000,
2000,2000,2000,2000,2000,2000,2000,2002,2001,2001,2001,2002,2000,2000,2000,2000,2000,2000,2000,2000,2000,2000,2000,2002,2001,2001,2001,2002,2000,2000,2000,2000,2000,2000,2000,2000,2000,2000,2000,2000,2000,2002,2001,2001,2001,2002,2000,2000,2000,2000,2000,2002,2001,2001,2001,2002,2000,2000,2000,2000,
2000,2000,2000,2000,2000,2000,2000,2002,2001,2001,2001,2002,2000,2000,2000,2000,2000,2000,2000,2000,2000,2000,2000,2002,2001,2001,2001,2002,2000,2000,2000,2000,2000,2000,2000,2000,2000,2000,2000,2000,2000,2002,2001,2001,2001,2002,2000,2000,2000,2000,2000,2002,2001,2001,2001,2002,2000,2000,2000,2000,
2000,2000,2000,2000,2000,2000,2000,2002,2001,2001,2001,2002,2000,2000,2000,2000,2000,2000,2000,2000,2000,2000,2000,2002,2001,2001,2001,2002,2000,2000,2000,2000,2000,2000,2000,2000,2000,2000,2000,2000,2000,2002,2001,2001,2001,2002,2000,2000,2000,2000,2000,2002,2001,2001,2001,2002,2000,2000,2000,2000,
2000,2000,2000,2000,2000,2000,2000,2002,2001,2001,2001,2002,2000,2000,2000,2000,2000,2000,2000,2000,2000,2000,2000,2002,2001,2001,2001,2002,2000,2000,2000,2000,2000,2000,2000,2000,2000,2000,2000,2000,2000,2002,2001,2001,2001,2002,2000,2000,2000,2000,2000,2002,2001,2001,2001,2002,2000,2000,2000,2000,
2002,2002,2002,2002,2002,2002,2002,2002,2001,2001,2001,2002,2002,2002,2002,2002,2002,2002,2002,2002,2002,2002,2002,2002,2001,2001,2001,2002,2002,2002,2002,2002,2002,2002,2002,2002,2002,2002,2002,2002,2002,2002,2001,2001,2001,2002,2002,2002,2002,2002,2002,2002,2001,2001,2001,2002,2002,2002,2002,2002,
2001,2001,2001,2001,2001,2001,2001,2001,2003,2003,2003,2001,2001,2001,2001,2001,2001,2001,2001,2001,2001,2001,2001,2001,2003,2003,2003,2001,2001,2001,2001,2001,2001,2001,2001,2001,2001,2001,2001,2001,2001,2001,2003,2003,2003,2001,2001,2001,2001,2001,2001,2001,2003,2003,2003,2001,2001,2001,2001,2001,
2001,2001,2001,2001,2001,2001,2001,2001,2003,2003,2003,2001,2001,2001,2001,2001,2001,2001,2001,2001,2001,2001,2001,2001,2003,2003,2003,2001,2001,2001,2001,2001,2001,2001,2001,2001,2001,2001,2001,2001,2001,2001,2003,2003,2003,2001,2001,2001,2001,2001,2001,2001,2003,2003,2003,2001,2001,2001,2001,2001,
2001,2001,2001,2001,2001,2001,2001,2001,2003,2003,2003,2001,2001,2001,2001,2001,2001,2001,2001,2001,2001,2001,2001,2001,2003,2003,2003,2001,2001,2001,2001,2001,2001,2001,2001,2001,2001,2001,2001,2001,2001,2001,2003,2003,2003,2001,2001,2001,2001,2001,2001,2001,2003,2003,2003,2001,2001,2001,2001,2001,
2002,2002,2002,2002,2002,2002,2002,2002,2001,2001,2001,2002,2002,2002,2002,2002,2002,2002,2002,2002,2002,2002,2002,2002,2001,2001,2001,2002,2002,2002,2002,2002,2002,2002,2002,2002,2002,2002,2002,2002,2002,2002,2001,2001,2001,2002,2002,2002,2002,2002,2002,2002,2001,2001,2001,2002,2002,2002,2002,2002,
2000,2000,2000,2000,2000,2000,2000,2002,2001,2001,2001,2002,2000,2000,2000,2000,2000,2000,2000,2000,2000,2000,2000,2002,2001,2001,2001,2002,2000,2000,2000,2000,2000,2000,2000,2000,2000,2000,2000,2000,2000,2002,2001,2001,2001,2002,2000,2000,2000,2000,2000,2002,2001,2001,2001,2002,2000,2000,2000,2000,
2000,2000,2000,2000,2000,2000,2000,2002,2001,2001,2001,2002,2000,2000,2000,2000,2000,2000,2000,2000,2000,2000,2000,2002,2001,2001,2001,2002,2000,2000,2000,2000,2000,2000,2000,2000,2000,2000,2000,2000,2000,2002,2001,2001,2001,2002,2000,2000,2000,2000,2000,2002,2001,2001,2001,2002,2000,2000,2000,2000,
2000,2000,2000,2000,2000,2000,2000,2002,2001,2001,2001,2002,2000,2000,2000,2000,2000,2000,2000,2000,2000,2000,2000,2002,2001,2001,2001,2002,2000,2000,2000,2000,2000,2000,2000,2000,2000,2000,2000,2000,2000,2002,2001,2001,2001,2002,2000,2000,2000,2000,2000,2002,2001,2001,2001,2002,2000,2000,2000,2000,
2000,2000,2000,2000,2000,2000,2000,2002,2001,2001,2001,2002,2000,2000,2000,2000,2000,2000,2000,2000,2000,2000,2000,2002,2001,2001,2001,2002,2000,2000,2000,2000,2000,2000,2000,2000,2000,2000,2000,2000,2000,2002,2001,2001,2001,2002,2000,2000,2000,2000,2000,2002,2001,2001,2001,2002,2000,2000,2000,2000,
2000,2000,2000,2000,2000,2000,2000,2002,2001,2001,2001,2002,2000,2000,2000,2000,2000,2000,2000,2000,2000,2000,2000,2002,2001,2001,2001,2002,2000,2000,2000,2000,2000,2000,2000,2000,2000,2000,2000,2000,2000,2002,2001,2001,2001,2002,2000,2000,2000,2000,2000,2002,2001,2001,2001,2002,2000,2000,2000,2000,
2000,2000,2000,2000,2000,2000,2000,2002,2001,2001,2001,2002,2000,2000,2000,2000,2000,2000,2000,2000,2000,2000,2000,2002,2001,2001,2001,2002,2000,2000,2000,2000,2000,2000,2000,2000,2000,2000,2000,2000,2000,2002,2001,2001,2001,2002,2000,2000,2000,2000,2000,2002,2001,2001,2001,2002,2000,2000,2000,2000,
2002,2002,2002,2002,2002,2002,2002,2002,2001,2001,2001,2002,2002,2002,2002,2002,2002,2002,2002,2002,2002,2002,2002,2002,2001,2001,2001,2002,2002,2002,2002,2002,2002,2002,2002,2002,2002,2002,2002,2002,2002,2002,2001,2001,2001,2002,2002,2002,2002,2002,2002,2002,2001,2001,2001,2002,2002,2002,2002,2002,
2001,2001,2001,2001,2001,2001,2001,2001,2003,2003,2003,2001,2001,2001,2001,2001,2001,2001,2001,2001,2001,2001,2001,2001,2003,2003,2003,2001,2001,2001,2001,2001,2001,2001,2001,2001,2001,2001,2001,2001,2001,2001,2003,2003,2003,2001,2001,2001,2001,2001,2001,2001,2003,2003,2003,2001,2001,2001,2001,2001,
2001,2001,2001,2001,2001,2001,2001,2001,2003,2003,2003,2001,2001,2001,2001,2001,2001,2001,2001,2001,2001,2001,2001,2001,2003,2003,2003,2001,2001,2001,2001,2001,2001,2001,2001,2001,2001,2001,2001,2001,2001,2001,2003,2003,2003,2001,2001,2001,2001,2001,2001,2001,2003,2003,2003,2001,2001,2001,2001,2001,
2001,2001,2001,2001,2001,2001,2001,2001,2003,2003,2003,2001,2001,2001,2001,2001,2001,2001,2001,2001,2001,2001,2001,2001,2003,2003,2003,2001,2001,2001,2001,2001,2001,2001,2001,2001,2001,2001,2001,2001,2001,2001,2003,2003,2003,2001,2001,2001,2001,2001,2001,2001,2003,2003,2003,2001,2001,2001,2001,2001,
2002,2002,2002,2002,2002,2002,2002,2002,2001,2001,2001,2002,2002,2002,2002,2002,2002,2002,2002,2002,2002,2002,2002,2002,2001,2001,2001,2002,2002,2002,2002,2002,2002,2002,2002,2002,2002,2002,2002,2002,2002,2002,2001,2001,2001,2002,2002,2002,2002,2002,2002,2002,2001,2001,2001,2002,2002,2002,2002,2002,
2000,2000,2000,2000,2000,2000,2000,2002,2001,2001,2001,2002,2000,2000,2000,2000,2000,2000,2000,2000,2000,2000,2000,2002,2001,2001,2001,2002,2000,2000,2000,2000,2000,2000,2000,2000,2000,2000,2000,2000,2000,2002,2001,2001,2001,2002,2000,2000,2000,2000,2000,2002,2001,2001,2001,2002,2000,2000,2000,2000,
2000,2000,2000,2000,2000,2000,2000,2002,2001,2001,2001,2002,2000,2000,2000,2000,2000,2000,2000,2000,2000,2000,2000,2002,2001,2001,2001,2002,2000,2000,2000,2000,2000,2000,2000,2000,2000,2000,2000,2000,2000,2002,2001,2001,2001,2002,2000,2000,2000,2000,2000,2002,2001,2001,2001,2002,2000,2000,2000,2000,
2000,2000,2000,2000,2000,2000,2000,2002,2001,2001,2001,2002,2000,2000,2000,2000,2000,2000,2000,2000,2000,2000,2000,2002,2001,2001,2001,2002,2000,2000,2000,2000,2000,2000,2000,2000,2000,2000,2000,2000,2000,2002,2001,2001,2001,2002,2000,2000,2000,2000,2000,2002,2001,2001,2001,2002,2000,2000,2000,2000,
2000,2000,2000,2000,2000,2000,2000,2002,2001,2001,2001,2002,2000,2000,2000,2000,2000,2000,2000,2000,2000,2000,2000,2002,2001,2001,2001,2002,2000,2000,2000,2000,2000,2000,2000,2000,2000,2000,2000,2000,2000,2002,2001,2001,2001,2002,2000,2000,2000,2000,2000,2002,2001,2001,2001,2002,2000,2000,2000,2000,
2000,2000,2000,2000,2000,2000,2000,2002,2001,2001,2001,2002,2000,2000,2000,2000,2000,2000,2000,2000,2000,2000,2000,2002,2001,2001,2001,2002,2000,2000,2000,2000,2000,2000,2000,2000,2000,2000,2000,2000,2000,2002,2001,2001,2001,2002,2000,2000,2000,2000,2000,2002,2001,2001,2001,2002,2000,2000,2000,2000
</data>
 </layer>
 <layer id="2" name="Objects" width="60" height="40">
  <data encoding="csv">
0,0,0,0,0,0,0,0,0,0,0,0,0,0,0,0,0,0,0,0,0,0,0,0,0,0,0,0,0,0,0,0,0,0,0,0,0,0,0,0,0,0,0,0,0,0,0,0,0,0,0,0,0,0,0,0,0,0,0,0,
0,0,0,0,0,0,0,0,0,0,0,0,0,0,0,0,0,0,0,0,0,0,0,0,0,0,0,0,0,0,0,0,0,0,0,0,0,0,0,0,0,0,0,0,0,0,0,0,0,0,0,0,0,0,0,0,0,0,0,0,
0,0,0,0,0,0,0,0,0,0,0,0,0,0,2004,2004,2004,2004,2004,2004,2004,0,0,0,0,0,0,0,0,0,2005,2005,2005,2005,2005,2005,2005,2005,0,0,0,0,0,0,0,0,0,0,0,0,0,0,0,0,0,0,0,0,0,0,
0,0,0,2006,2006,0,0,0,0,0,0,0,0,0,2004,2004,2004,2004,2004,2004,2004,0,0,0,0,0,0,0,0,0,2005,2005,2005,2005,2005,2005,2005,2005,0,0,0,0,0,0,0,0,0,0,0,0,0,0,0,0,0,0,0,0,0,0,
0,0,0,2006,0,0,0,0,0,0,0,0,0,0,2004,2004,2004,2004,2004,2004,2004,0,0,0,0,0,0,0,0,0,2005,2005,2005,2005,2005,2005,2005,2005,0,0,0,0,0,0,0,0,0,2006,0,0,0,0,0,0,0,0,0,0,0,0,
0,0,0,0,0,0,0,0,0,0,0,0,0,0,2004,2004,2004,2004,2004,2004,2004,0,0,0,0,0,0,0,0,0,2005,2005,2005,2005,2005,2005,2005,2005,0,0,0,0,0,0,0,0,0,0,2006,0,0,0,0,0,0,0,0,0,0,0,
0,0,0,0,0,0,0,0,0,0,0,0,0,0,0,0,0,0,0,0,0,0,0,0,0,0,0,0,0,0,2005,2005,2005,2005,2005,2005,2005,2005,0,0,0,0,0,0,0,0,0,0,0,0,0,0,0,0,0,0,0,0,0,0,
0,0,0,0,0,0,0,0,0,0,0,0,0,0,0,0,0,0,0,0,0,0,0,0,0,0,0,0,0,0,0,0,0,0,0,0,0,0,0,0,0,0,0,0,0,0,0,0,0,0,0,0,0,0,0,0,0,0,0,0,
0,0,0,0,0,0,0,0,0,0,0,0,0,0,0,0,0,0,0,0,0,0,0,0,0,0,0,0,0,0,0,0,0,0,0,0,0,0,0,0,0,0,0,0,0,0,0,0,0,0,0,0,0,0,0,0,0,0,0,0,
0,0,0,0,0,0,0,0,0,0,0,0,0,0,0,0,0,0,0,0,0,0,0,0,0,0,0,0,0,0,0,0,0,0,0,0,0,0,0,0,0,0,0,0,0,0,0,0,0,0,0,0,0,0,0,0,0,0,0,0,
0,0,0,0,0,0,0,0,0,0,0,0,0,0,0,0,0,0,0,0,0,0,0,0,0,0,0,0,0,0,0,0,0,0,0,0,0,0,0,0,0,0,0,0,0,0,0,0,0,0,0,0,0,0,0,0,0,0,0,0,
0,0,0,0,0,0,0,0,0,0,0,0,0,0,0,0,0,0,0,0,0,0,0,0,0,0,0,0,0,0,0,2005,2005,2005,2005,2005,2005,2005,2005,2005,0,0,0,0,0,0,0,0,0,0,0,0,0,0,0,0,0,0,0,0,
0,0,2005,2005,2005,2005,2005,0,0,0,0,0,0,0,2004,2004,2004,2004,2004,2004,2004,2004,0,0,0,0,0,0,0,0,0,2005,2005,2005,2005,2005,2005,2005,2005,2005,0,0,0,0,0,0,0,0,0,0,0,0,0,0,0,0,0,0,0,0,
0,0,2005,2005,2005,2005,2005,0,0,0,0,0,0,0,2004,2004,2004,2004,2004,2004,2004,2004,0,0,0,0,0,0,0,0,0,2005,2005,2005,2005,2005,2005,2005,2005,2005,0,0,0,0,0,0,0,0,0,2006,0,0,0,0,0,0,0,0,0,0,
0,0,2005,2005,2005,2005,2005,0,0,0,0,0,0,0,2004,2004,2004,2004,2004,2004,2004,2004,0,0,0,0,0,0,0,0,0,2005,2005,2005,2005,2005,2005,2005,2005,2005,0,0,0,0,0,0,0,0,0,0,2006,0,0,0,0,0,0,0,0,0,
0,0,2005,2005,2005,2005,2005,0,0,0,0,0,0,0,2004,2004,2004,2004,2004,2004,2004,2004,0,0,0,0,0,0,0,0,0,2005,2005,2005,2005,2005,2005,2005,2005,2005,0,0,0,0,0,0,0,0,2006,0,0,0,0,0,0,0,2006,0,0,0,
0,0,2005,2005,2005,2005,2005,0,0,0,0,0,0,0,2004,2004,2004,2004,2004,2004,2004,2004,0,0,0,0,0,0,0,0,0,2005,2005,2005,2005,2005,2005,2005,2005,2005,0,0,0,0,0,0,0,0,0,0,2006,0,0,0,0,0,0,0,0,0,
0,0,2005,2005,2005,2005,2005,0,0,0,0,0,0,0,2004,2004,2004,2004,2004,2004,2004,2004,0,0,0,0,0,0,0,0,0,2005,2005,2005,2005,2005,2005,2005,2005,2005,0,0,0,0,0,0,0,0,0,0,0,0,0,0,0,0,0,0,0,0,
0,0,0,0,0,0,0,0,0,0,0,0,0,0,2004,2004,2004,2004,2004,2004,2004,2004,0,0,0,0,0,0,0,0,0,0,0,0,0,0,0,0,0,0,0,0,0,0,0,0,0,0,0,0,0,0,0,0,0,0,0,0,0,0,
0,0,0,0,0,0,0,0,0,0,0,0,0,0,0,0,0,0,0,0,0,0,0,0,0,0,0,0,0,0,0,0,0,0,0,0,0,0,0,0,0,0,0,0,0,0,0,0,0,0,0,0,0,0,0,0,0,0,0,0,
0,0,0,0,0,0,0,0,0,0,0,0,0,0,0,0,0,0,0,0,0,0,0,0,0,0,0,0,0,0,0,0,0,0,0,0,0,0,0,0,0,0,0,0,0,0,0,0,0,0,0,0,0,0,0,0,0,0,0,0,
0,0,0,0,0,0,0,0,0,0,0,0,0,0,0,0,0,0,0,0,0,0,0,0,0,0,0,0,0,0,0,0,0,0,0,0,0,0,0,0,0,0,0,0,0,0,0,0,0,0,0,0,0,0,0,0,0,0,0,0,
0,0,0,0,0,0,0,0,0,0,0,0,0,0,0,0,0,0,0,0,0,0,0,0,0,0,0,0,0,0,0,0,0,0,0,0,0,0,0,0,0,0,0,0,0,0,0,0,0,0,0,0,0,0,0,0,0,0,0,0,
0,0,0,0,0,0,0,0,0,0,0,0,0,0,0,0,0,0,0,0,0,0,0,0,0,0,0,0,0,0,0,0,0,0,0,0,0,0,0,0,0,0,0,0,0,0,0,0,0,0,0,0,0,0,0,0,0,0,0,0,
0,0,0,2004,2004,2004,2004,2004,0,0,0,0,0,0,0,0,0,0,0,0,0,0,0,0,0,0,0,0,0,0,0,0,0,0,0,0,0,0,0,0,0,0,0,0,0,0,0,0,0,0,0,0,0,0,0,0,0,0,0,0,
0,0,0,2004,2004,2004,2004,2004,0,0,0,0,0,0,2005,2005,2005,2005,2005,2005,2005,2005,2005,0,0,0,0,0,0,0,0,0,0,0,2004,2004,2004,2004,2004,2004,2004,0,0,0,0,0,0,0,2006,0,0,0,0,0,0,0,0,0,0,0,
0,0,0,2004,2004,2004,2004,2004,0,0,0,0,0,0,2005,2005,2005,2005,2005,2005,2005,2005,2005,0,0,0,0,0,0,0,0,0,0,0,2004,2004,2004,2004,2004,2004,2004,0,0,0,0,0,0,0,0,2006,0,0,0,0,0,0,2006,0,0,0,
0,0,0,2004,2004,2004,2004,2004,0,0,0,0,0,0,2005,2005,2005,2005,2005,2005,2005,2005,2005,0,0,0,0,0,0,0,0,0,0,0,2004,2004,2004,2004,2004,2004,2004,0,0,0,0,0,0,0,0,0,2006,0,0,0,0,0,0,0,0,0,
0,0,0,2004,2004,2004,2004,2004,0,0,0,0,0,0,2005,2005,2005,2005,2005,2005,2005,2005,2005,0,0,0,0,0,0,0,0,0,0,0,2004,2004,2004,2004,2004,2004,2004,0,0,0,0,0,0,0,0,0,0,0,0,0,0,0,0,0,0,0,
0,0,0,2004,2004,2004,2004,2004,0,0,0,0,0,0,2005,2005,2005,2005,2005,2005,2005,2005,2005,0,0,0,0,0,0,0,0,0,0,0,2004,2004,2004,2004,2004,2004,2004,0,0,0,0,0,0,0,0,0,0,0,0,0,0,0,0,0,0,0,
0,0,0,0,0,0,0,0,0,0,0,0,0,0,2005,2005,2005,2005,2005,2005,2005,2005,2005,0,0,0,0,0,0,0,0,0,0,0,0,0,0,0,0,0,0,0,0,0,0,0,0,0,0,0,0,0,0,0,0,0,0,0,0,0,
0,0,0,0,0,0,0,0,0,0,0,0,0,0,0,0,0,0,0,0,0,0,0,0,0,0,0,0,0,0,0,0,0,0,0,0,0,0,0,0,0,0,0,0,0,0,0,0,0,0,0,0,0,0,0,0,0,0,0,0,
0,0,0,0,0,0,0,0,0,0,0,0,0,0,0,0,0,0,0,0,0,0,0,0,0,0,0,0,0,0,0,0,0,0,0,0,0,0,0,0,0,0,0,0,0,0,0,0,0,0,0,0,0,0,0,0,0,0,0,0,
0,0,0,0,0,0,0,0,0,0,0,0,0,0,0,0,0,0,0,0,0,0,0,0,0,0,0,0,0,0,0,0,0,0,0,0,0,0,0,0,0,0,0,0,0,0,0,0,0,0,0,0,0,0,0,0,0,0,0,0,
0,0,0,0,0,0,0,0,0,0,0,0,2004,2004,2004,2004,2004,2004,2004,2004,2004,0,0,0,0,0,0,0,0,0,0,0,0,0,0,0,0,0,0,0,0,0,0,0,0,0,0,0,0,0,0,0,0,0,0,0,0,0,0,0,
0,0,0,0,2006,0,0,0,0,0,0,0,2004,2004,2004,2004,2004,2004,2004,2004,2004,0,0,0,0,0,0,0,2005,2005,2005,2005,2005,2005,2005,2005,2005,0,0,0,0,0,0,0,0,0,0,0,0,0,0,0,0,0,0,0,0,0,0,0,
0,0,0,0,0,2006,2006,0,0,0,0,0,2004,2004,2004,2004,2004,2004,2004,2004,2004,0,0,0,0,0,0,0,2005,2005,2005,2005,2005,2005,2005,2005,2005,0,0,0,0,0,0,0,0,0,0,0,0,0,0,0,0,0,0,0,0,0,0,0,
0,0,0,0,0,0,0,0,0,0,0,0,2004,2004,2004,2004,2004,2004,2004,2004,2004,0,0,0,0,0,0,0,2005,2005,2005,2005,2005,2005,2005,2005,2005,0,0,0,0,0,0,0,0,0,0,0,0,0,0,0,0,0,0,0,0,0,0,0,
0,0,0,0,0,0,0,0,0,0,0,0,2004,2004,2004,2004,2004,2004,2004,2004,2004,0,0,0,0,0,0,0,2005,2005,2005,2005,2005,2005,2005,2005,2005,0,0,0,0,0,0,0,0,0,0,0,0,0,0,0,0,0,0,0,0,0,0,0,
0,0,0,0,0,0,0,0,0,0,0,0,0,0,0,0,0,0,0,0,0,0,0,0,0,0,0,0,0,0,0,0,0,0,0,0,0,0,0,0,0,0,0,0,0,0,0,0,0,0,0,0,0,0,0,0,0,0,0,0
</data>
 </layer>
</map>

